X:1
T:Title
%%score ( 1 2 ) { 3 | 4 }
L:1/8
Q:1/4=100
M:12/8
K:Ab
V:1 treble nm="Grand Piano, Soprano"
V:2 treble 
V:3 bass nm="Choir Pad, The World for the Lord"
V:4 bass 
V:1
 [CE] [CE]2- [CE][_C=D][=CE] [_DF] [CE]2- [CE] [EA]2 | %1
w: By~R.~Frank~Lehman * * * * * * * *|
 [EG] [DF]2- [DF] [FA]2 [DF] [DF]2- [DF] [CE]2 | %2
w: |
 [CE] [CE]2- [CE][_C=D][=CE] [_DF] [CE]2- [CE] [EA]2 | %3
w: |
 [E_c] [E=c]2- [Ec] [EB]2 [=DF] [EB]2- [EB]3/2 z/ z | %4
w: |
 [DE] [CE]2- [CE][_C=D][=CE] [_DF] [CE]2- [CE] [EA]2 | %5
w: |
 [EG] [DF]2- [DF] [FA]2 [DF] [DF]2- [DF] [CE]2 | [CE] [CA]2- [CA][CA][DB] [Ec] [Fd]2- [Fd] [Fc]2 | %7
w: ||
 [FB] [EA]2- [EA]GA [EB] [EA]2- [EA]3/2 z/ z | E [Ec]2- [Ec][DB][Ec] [DB] [CA]2- [CA] [CE]2 | %9
w: ||
 [EA] [EA]2- [EA] [EG]2 [EB] [EB]2- [EB] [EA]2 | [Cc] [Cc]2- [Cc]C=D =E F2 G A2 | %11
w: ||
 [CA] [=DB]2- [DB] [Dc]2 [DB] [_DB]2- [DB]3/2 z/ z | E [Ec]2- [Ec][DB][Ec] [DB] [CA]2- [CA] [CE]2 | %13
w: ||
 [EA] [EA]2- [EA] [EG]2 [Ed] [Ed]2- [Ed] [Ec]2 | [Ec] [Ff]2- [Ff] [Fc]2 [Fe] [Fd]2- [Fd] [Fc]2 | %15
w: ||
 [FB] [EA]2- [EA]GA [EB] [EA]2- [EA]3- | [EA]3 z3 z6 |] %17
w: ||
V:2
 x12 | x12 | x12 | x12 | x12 | x12 | x12 | z3 z E2 z6 | x12 | x12 | x12 | x12 | x12 | x12 | x12 | %15
 z3 z E2 z6 | x12 |] %17
V:3
 A, A,2- A, A,2 A, A,2- A, A,2 | A, A,2- A, A,2 A, A,2- A, A,2 | A, A,2- A, A,2 A, A,2- A, A,2 | %3
 G, A,2- A,/ z/ B,2 A, G,2- G,3/2 z/ z | G, A,2- A, A,2 A, A,2- A, A,2 | %5
 A, A,2- A, A,2 A, A,2- A, A,2 | A, A,2- A, A,2 A, A,2- A,[K:treble] D2 | %7
 D C2- CB,C D C2- C3/2 z/ z | E, A,2- A, G,2 G, A,2- A, A,2 | A,[K:treble] C2- C B,2 D D2- D C2 | %10
 C C2- C[K:bass]C,=D, E, F,2 G, A,2 | A, A,2- A, A,2 A, G,2- G,3/2 z/ z | %12
 E, A,2- A, G,2 G, A,2- A, A,2 | A, C2- C B,2 B, A,2- A,/ z/ C2 | B, =A,2- A, A,2 A, B,2- B, A,2 | %15
 B,[K:treble] C2- CB,C D C2- C3- | C3 z3 z6 |] %17
V:4
 A,, A,,2- A,, A,,2 A,, A,,2- A,, C,2 | C, D,2- D, D,2 D, A,,2- A,, A,,2 | %2
 A,, A,,2- A,, A,,2 A,, A,,2- A,, C,2 | .E,3 z G,2 F, E,2- E,3/2 z/ z | %4
 E, A,,2- A,, A,,2 A,, A,,2- A,, C,2 | C, D,2- D, D,2 D, A,,2- A,, A,,2 | %6
 A,, A,,2- A,, z z z D,2- D, B,,2 | B,, E,2- E, E,2 E, A,,2- A,,3/2 z/ z | %8
 z A,,2- A,, E,2 E, A,,2- A,, A,,2 | C, E,2- E, E,2 E, A,2- A, A,2 | C, C,2- C, z z z6 | %11
 F, B,,2- B,, B,,2 B,, E,2- E,3/2 z/ z | z A,,2- A,, E,2 E, A,,2- A,, A,,2 | %13
 C, E,2- E, E,2 .G,3 z A,2 | _G, F,2- F, F,2 F, B,,2- B,, C,2 | D, E,2- E, E,2 E, A,,2- A,,3- | %16
 A,,3 z3 z6 |] %17

